static/img/in-field/btn-colour-mix-progression-secondary-dark.svg

<svg fill="none" height="48" viewBox="0 0 100 48" width="100" xmlns="http://www.w3.org/2000/svg"><rect fill="#6a6e79" height="48" rx="4" width="100"/><path d="m24.1309 20.0371c-1.1394 0-2.0215.4297-2.6465 1.2891-.625.8528-.9375 2.0442-.9375 3.5742 0 3.1836 1.1946 4.7754 3.584 4.7754 1.0026 0 2.2168-.2507 3.6425-.752v2.5391c-1.1718.4883-2.4804.7324-3.9257.7324-2.0769 0-3.6654-.6282-4.7657-1.8848-1.1002-1.263-1.6504-3.0729-1.6504-5.4296 0-1.4844.2702-2.7832.8106-3.8965.5404-1.1198 1.3151-1.9759 2.3242-2.5684 1.0156-.5989 2.2038-.8984 3.5645-.8984 1.3867 0 2.7799.3353 4.1796 1.0058l-.9765 2.461c-.5339-.2539-1.071-.4753-1.6113-.6641-.5404-.1888-1.071-.2832-1.5918-.2832zm13.6386 11.9629-.5761-1.4844h-.0782c-.5013.6315-1.0188 1.071-1.5527 1.3184-.5273.2409-1.2174.3613-2.0703.3613-1.0482 0-1.875-.2995-2.4805-.8984-.5989-.599-.8984-1.4518-.8984-2.5586 0-1.1589.4036-2.0117 1.2109-2.5586.8138-.5534 2.0378-.8594 3.6719-.918l1.8945-.0586v-.4785c0-1.1068-.5664-1.6601-1.6992-1.6601-.8724 0-1.8978.2636-3.0762.791l-.9863-2.0117c1.2565-.6576 2.6497-.9864 4.1797-.9864 1.4648 0 2.5879.319 3.3691.9571.7813.638 1.1719 1.608 1.1719 2.9101v7.2754zm-.8789-5.0586-1.1523.0391c-.8659.026-1.5104.1823-1.9336.4687-.4232.2865-.6348.7227-.6348 1.3086 0 .8399.4818 1.2598 1.4453 1.2598.6901 0 1.2403-.1986 1.6504-.5957.4167-.3972.625-.9245.625-1.5821zm16.3633 5.0586h-2.9785v-6.377c0-.7877-.14-1.3769-.4199-1.7675-.28-.3972-.7259-.5957-1.3379-.5957-.8334 0-1.4356.2799-1.8067.8398-.3711.5534-.5566 1.4746-.5566 2.7637v5.1367h-2.9785v-10.918h2.2754l.4004 1.3965h.166c.332-.5273.7877-.9245 1.3672-1.1914.5859-.2734 1.25-.4101 1.9922-.4101 1.2695 0 2.233.345 2.8906 1.0351.6575.6836.9863 1.6732.9863 2.9688zm7.75.1953c-3.3984 0-5.0977-1.8652-5.0977-5.5957 0-1.8555.4623-3.2715 1.3868-4.248.9244-.9831 2.2493-1.4746 3.9746-1.4746 1.263 0 2.3958.2473 3.3984.7421l-.8789 2.3047c-.4687-.1888-.9049-.3418-1.3086-.459-.4036-.1237-.8073-.1855-1.2109-.1855-1.5495 0-2.3242 1.1003-2.3242 3.3008 0 2.1354.7747 3.2031 2.3242 3.2031.5729 0 1.1035-.0749 1.5918-.2246.4883-.1563.9765-.3971 1.4648-.7227v2.5489c-.4818.306-.97.5175-1.4648.6347-.4883.1172-1.1068.1758-1.8555.1758zm10.6309-9.1992c-.6315 0-1.1263.2018-1.4844.6055-.3581.3971-.5632.9635-.6152 1.6992h4.1796c-.013-.7357-.205-1.3021-.5761-1.6992-.3711-.4037-.8724-.6055-1.5039-.6055zm.4199 9.1992c-1.7578 0-3.1315-.485-4.1211-1.4551-.9896-.97-1.4844-2.3437-1.4844-4.1211 0-1.8294.4557-3.2421 1.3672-4.2382.918-1.0026 2.1843-1.5039 3.7988-1.5039 1.543 0 2.7442.4394 3.6036 1.3183.8593.8789 1.289 2.0931 1.289 3.6426v1.4453h-7.041c.0325.8464.2832 1.5072.752 1.9824.4687.4753 1.1263.7129 1.9726.7129.6576 0 1.2793-.0683 1.8652-.2051.586-.1367 1.198-.3548 1.836-.6543v2.3047c-.5209.2604-1.0775.4525-1.6699.5762-.5925.1302-1.3151.1953-2.168.1953zm10.1035-.1953h-2.9785v-15.1953h2.9785z" fill="#fff"/></svg>

<svg width="100" height="48" viewBox="0 0 100 48" fill="none" xmlns="http://www.w3.org/2000/svg"><rect width="100" height="48" rx="4" fill="#6A6E79"/><path d="M24.1309 20.0371C22.9915 20.0371 22.1094 20.4668 21.4844 21.3262C20.8594 22.179 20.5469 23.3704 20.5469 24.9004C20.5469 28.084 21.7415 29.6758 24.1309 29.6758C25.1335 29.6758 26.3477 29.4251 27.7734 28.9238V31.4629C26.6016 31.9512 25.293 32.1953 23.8477 32.1953C21.7708 32.1953 20.1823 31.5671 19.082 30.3105C17.9818 29.0475 17.4316 27.2376 17.4316 24.8809C17.4316 23.3965 17.7018 22.0977 18.2422 20.9844C18.7826 19.8646 19.5573 19.0085 20.5664 18.416C21.582 17.8171 22.7702 17.5176 24.1309 17.5176C25.5176 17.5176 26.9108 17.8529 28.3105 18.5234L27.334 20.9844C26.8001 20.7305 26.263 20.5091 25.7227 20.3203C25.1823 20.1315 24.6517 20.0371 24.1309 20.0371ZM37.7695 32L37.1934 30.5156H37.1152C36.6139 31.1471 36.0964 31.5866 35.5625 31.834C35.0352 32.0749 34.3451 32.1953 33.4922 32.1953C32.444 32.1953 31.6172 31.8958 31.0117 31.2969C30.4128 30.6979 30.1133 29.8451 30.1133 28.7383C30.1133 27.5794 30.5169 26.7266 31.3242 26.1797C32.138 25.6263 33.362 25.3203 34.9961 25.2617L36.8906 25.2031V24.7246C36.8906 23.6178 36.3242 23.0645 35.1914 23.0645C34.319 23.0645 33.2936 23.3281 32.1152 23.8555L31.1289 21.8438C32.3854 21.1862 33.7786 20.8574 35.3086 20.8574C36.7734 20.8574 37.8965 21.1764 38.6777 21.8145C39.459 22.4525 39.8496 23.4225 39.8496 24.7246V32H37.7695ZM36.8906 26.9414L35.7383 26.9805C34.8724 27.0065 34.2279 27.1628 33.8047 27.4492C33.3815 27.7357 33.1699 28.1719 33.1699 28.7578C33.1699 29.5977 33.6517 30.0176 34.6152 30.0176C35.3053 30.0176 35.8555 29.819 36.2656 29.4219C36.6823 29.0247 36.8906 28.4974 36.8906 27.8398V26.9414ZM53.2539 32H50.2754V25.623C50.2754 24.8353 50.1354 24.2461 49.8555 23.8555C49.5755 23.4583 49.1296 23.2598 48.5176 23.2598C47.6842 23.2598 47.082 23.5397 46.7109 24.0996C46.3398 24.653 46.1543 25.5742 46.1543 26.8633V32H43.1758V21.082H45.4512L45.8516 22.4785H46.0176C46.3496 21.9512 46.8053 21.554 47.3848 21.2871C47.9707 21.0137 48.6348 20.877 49.377 20.877C50.6465 20.877 51.61 21.222 52.2676 21.9121C52.9251 22.5957 53.2539 23.5853 53.2539 24.8809V32ZM61.0039 32.1953C57.6055 32.1953 55.9062 30.3301 55.9062 26.5996C55.9062 24.7441 56.3685 23.3281 57.293 22.3516C58.2174 21.3685 59.5423 20.877 61.2676 20.877C62.5306 20.877 63.6634 21.1243 64.666 21.6191L63.7871 23.9238C63.3184 23.735 62.8822 23.582 62.4785 23.4648C62.0749 23.3411 61.6712 23.2793 61.2676 23.2793C59.7181 23.2793 58.9434 24.3796 58.9434 26.5801C58.9434 28.7155 59.7181 29.7832 61.2676 29.7832C61.8405 29.7832 62.3711 29.7083 62.8594 29.5586C63.3477 29.4023 63.8359 29.1615 64.3242 28.8359V31.3848C63.8424 31.6908 63.3542 31.9023 62.8594 32.0195C62.3711 32.1367 61.7526 32.1953 61.0039 32.1953ZM71.6348 22.9961C71.0033 22.9961 70.5085 23.1979 70.1504 23.6016C69.7923 23.9987 69.5872 24.5651 69.5352 25.3008H73.7148C73.7018 24.5651 73.5098 23.9987 73.1387 23.6016C72.7676 23.1979 72.2663 22.9961 71.6348 22.9961ZM72.0547 32.1953C70.2969 32.1953 68.9232 31.7103 67.9336 30.7402C66.944 29.7702 66.4492 28.3965 66.4492 26.6191C66.4492 24.7897 66.9049 23.377 67.8164 22.3809C68.7344 21.3783 70.0007 20.877 71.6152 20.877C73.1582 20.877 74.3594 21.3164 75.2188 22.1953C76.0781 23.0742 76.5078 24.2884 76.5078 25.8379V27.2832H69.4668C69.4993 28.1296 69.75 28.7904 70.2188 29.2656C70.6875 29.7409 71.3451 29.9785 72.1914 29.9785C72.849 29.9785 73.4707 29.9102 74.0566 29.7734C74.6426 29.6367 75.2546 29.4186 75.8926 29.1191V31.4238C75.3717 31.6842 74.8151 31.8763 74.2227 32C73.6302 32.1302 72.9076 32.1953 72.0547 32.1953ZM82.1582 32H79.1797V16.8047H82.1582V32Z" fill="#fff"/></svg>
